X:116
T: EIN TAEUBCHEN FLOG VOM HIMMELSZELT
N: F0235
O: Europa, Mitteleuropa, Deutschland; Daenemark
R: Jugend - Lied, Moral
M: 2/4
L: 1/8
K: F
F | A2AG | F2F2 | c2d=B | c2z
F | A2AG | F2F2 | c2d=B | c2z
c | c2fe | d2AB | c2cB | A2z
B | ccAB | ccBA | G4 | F2z

@@@ Tune index: 5547
